X:5208
T:Polska i G efter Per Jonas Lång, Haverö
O:england
M:3/4
L:1/8
S:E Övergård nr 571
R:Kringpolska
A:Haverö, västra Medelpad
K:G
g>d (gb) b2|{gag}f>d (fa) a2|f>d gg (3b(gb)|(3a(fa) gd BG|\
g>d (gb) b2|{gag}f>d (fa) a2|f>d gg (3b(gb)|(3.a.f.a [B4g4]:||:\
G>g gd dB|G>B (ed) (cB)|(3G(AB) (3c(Ac) B>G|(3G(AB) (BA) A2-|\
Ag gd dB|G>B (ed) (cB)|(3G(AB) (3c(Ac) (3B(GB)|(3.A.F.A [G,4G4]:|]
T:Andrastämma
G>D (GB) B2|{G}F>D (FA) A2|F>D GG (3B(GB)|(3A(FA) GD B,G,|\
G>D (GB) B2|{GAG}F>D (FA) A2|F>D GG (3B(GB)|(3.A.F.A [B,4G4]:||:\
G,>G GD DB,|G,>B, (ED) (CB,)|(3G,(A,B,) (3C(A,C) B,>G,|(3G,(A,B,) (B,A,)
A,2-|\
A,G GD DB,|G,>B, (ED) (CB,)|(3G,(A,B,) (3C(A,C) (3B,(G,B,)|A,2 [B,4D4]:|
]


